X:1
T:Reverie
T:Rêverie
T:Arranged for Flute, Violin, and Cello
T:Composed by Claude Debussy
C:Composed by Claude Debussy
%%score 1 2 3
L:1/8
Q:1/4=90
M:4/4
K:F
V:1 treble nm="Flute" snm="Fl."
V:2 treble nm="Violin" snm="Vln."
V:3 bass nm="Violoncello" snm="Vc."
V:1
!pp! z8 | z8 | g4 d4- | d2 ef g2 ed | (3e2 c2 e2 d4- | d4 B2 d2 | e2 f2 c4- | c4 G4 | A8- | A8 | %10
!p!"_cresc." a4 e4- | e2 ce d2 BG |!mf! a4 e4- | e2 ce d2 BG |"_dim." g4 d4- | d2 Bd c2 AG | %16
 A2 EA F2 DF | D4 C4 |!pp! c'4 g4- | g2 ab c'2 ag | (3a2 f2 a2 g4- |"_cresc." g4 _e2 g2 | %22
 a2 b2 f4- | f4 a2 b2 | c'2 d'2 a4- | a4 b2 d'2 |!f! f'4 ^c'4 |!p! z2 de f2 fa | f2 DE F2 FA | %29
 F4 D4- | D2 C2 c4 | cegc' gecG |!pp! _ecGc ecGc | _ecGc ecGc | a^fdf afdf | a^fdf dA^FA | %36
 _ecGc ecGc |!<(! _ecGc ecGc | ^gece gece | ^gece gcge!<)! |!mf! acAc acAc | acAc acAc | %42
"_dim." =bf=Bf c'_bfb | c'bfb c'beb |!p! c'aeg d'adb | dADB A2 G2 | F4 F4- | F4 A4 | %48
 .f2 .e2 .e2 .f2 | .f2 .e2 .e4 |!pp! F2 E2 E2 (3FAF | E2 D2 C4 |!p! f2 e2 e2 (3fga | (3faf e2 e4 | %54
!pp! E2 ^C2 C2 E2 | ^F2 ^G2 E4 |[K:E] f2 g2 e2 c'2 | f2 (3gfg e2 B2 | G2 B2 G2 E2 | F4 c4 | %60
 f2 g2 e2 c'2 | f2 (3gfg e2 b2 | c'2 e'2"_cresc." d'2 b2 | c'2 e'2 f'2 b2 |!mf! c'2 e'2 d'2 b2 | %65
 c'2 e'2 f'2 b2 |[K:C]!p! (3g'gg' (3gg'g (3g'gg' (3gg'g | (3g'gg' (3gg'g (3g'gg' (3gg'g | %68
 D2 E2 C2 A2 | D2 (3EDE C4 | d2 (3ede c4 |!pp! (3ceg (3_bc'e' (3g'e'c' (3bge |[M:3/4] z6 | %73
[K:F][M:4/4] g4 g'd'c'b | z2 ef g'd'c'b | (3e2 c2 e2 g'd'c'b | z4 g'd'c'b | e2 f2 f'c'ba | %78
 z4 e'bag | A8- | A8 |!mp! a4 e4- | e2 ce d2 BG |!p! a4 e4- | e2 ce d2 BG | g4 d4- | %86
!<(! d2 Bd c2 AF!<)! |!mf! g4 d4- | d2 Bd!>(! c2 d2!>)! |!p! B2 A2 A2 B2 | B2 A2 A4 | %91
 B2 A2 A2 (3BdB | A2 G2 F4 | b2 a2 a2 b2 | b2 a2 a4 |!pp! b2 a2 a2 (3bd'b | a4 g4 | a'8 | a8 |] %99
V:2
!pp! z8 | z8 | z8 | z8 | z8 | z8 | z8 | z8 | z2 A,F DA,CF | z2 A,F DA,CF | z8 | z8 | z8 | z8 | z8 | %15
 z8 | z8 | z8 |!pp! c4 G4- | G2 AB c2 AG | (3A2 F2 A2 [G_e]4- |"_cresc." [Ge]4 [_Ec]2 G2 | %22
 A2 B2 [Fd]4- | [Fd]4 A2 B2 | c2 d2 [Ad]4- | [Ad]4 B2 d2 |!f! [f^c']4 ^c4 |!p! z2 A6 | A2 z2 z4 | %29
 z8 | =B,2 z2 z4 | z8 |!pp! [_EG]2 z2 [EG]2 z2 | [_EG]2 z2 [EG]2 z2 | !arpeggio![^FAd]8 | [Ad]8 | %36
 [_EG]2 z2 [EG]2 z2 |!<(! [_EG]2 z2 [Gc]2 z2 | [^Gc]8 | [^Gc]8!<)! |!mf! G2 FE D4- | D4 E2 F2 | %42
"_dim." F2 ED C4- | C4 D2 E2 |!p! E2 DC B,4- | B,4 A,2 G,2 | z8 | z8 | %48
 .[Ad]2 .[^G=B]2 .[GB]2 .[Ad]2 | .[Ad]2 .[^G=B]2 .[GB]4 |!pp! [A,D]2 [^G,=B,]2 [G,B,]2 [A,D]2 | %51
 =B,2 _B,2 A,4 |!p! [Ad]2 [^G=B]2 [GB]2 [Ad]2 | [Ad]2 [^G=B]2 [GB]4 | %54
!pp! [^G,=B,]2 A,2 ^A,2 [G,B,]2 | [A,C]2 [=B,^D]2 [^G,B,]4 |[K:E] [Ac]2 [Bd]2 [GB]2 [eg]2 | %57
 [Ac]2 [Bd]2 [GB]2 [EG]2 | [DE]2 [CE]2 [B,E]2 [G,C]2 | [A,D]4 [DA]4 | c2 d2 B2 e2 | c2 d2 B2 e2 | %62
 e4"_cresc." f4 | =g4 f4 |!mf! e4 f4 | =g4 f4 |[K:C]!p! [FB]4 [Ec]4 | [FB]4 [Ec]4 | A,2 B,2 C4 | %69
 A,4 _B,4 | A2 B2 _B4 |!pp! z8 |[M:3/4] c_B GE CB, |[K:F][M:4/4] z4 d4- | d2 z2 g2 ed | z4 d4- | %76
 d4 B2 d2 | z4 c4- | c4 G4 | z2 A,F DA,CF | z2 A,F DA,CF | z8 | z8 | z8 | z8 | z8 | z8 |!mf! z8 | %88
 z4!>(! G2 ^F2!>)! |!p! [DG]2 [^CE]2 [CE]2 [DG]2 | [DG]2 [^CE]2 [CE]4 | [DG]2 [^CE]2 [CE]2 [DG]2 | %92
 [^CE]4 [A,D]4 | g2 e2 e2 g2 | g2 e2 e4 |!pp! g2 e2 e2 g2 | [Be]8 | [af']8 | [Ac]8 |] %99
V:3
!pp! B,CDG- GDCB,- | B,CDG- GDCB, | B,CDG- GDCB,- | B,CDG- GDCB,- | B,CDG- GDCB,- | B,CDG- GDCB, | %6
 A,B,CF- FCB,A, | G,A,B,E- EB,A,G, | F,,C,- C,6 | F,,C,- C,6 |!p!"_cresc." D,,A,,D,F, A,CEC | %11
 A,F,A,C G,,D,G,B, |!mf! D,,A,,D,F, A,CEC | A,F,A,C G,,D,G,B, |"_dim." C,,G,,E,G, B,DED | %15
 B,DB,G, F,,C,F,A, | A,,E,A,E, D,A,F,D, | G,,F,G,[G,B,] C,,G,,E,[G,B,] |!pp! C,,F,,C,_E, G,A,C_E | %19
 G_ECA, G,_E,C,F,, | C,,F,,C,_E, G,A,C_E |"_cresc." G_ECA, G,_E,C,F,, | D,,F,,B,,D, F,B,DF | %23
 DB,F,D, B,,F,,D,,F,, | D,,F,,B,,D, F,B,DF | DB,F,D, B,,F,,D,,F,, |!f! ^C,,G,,^C,F, A,^CFA | %27
!p! G,,D,F,A, DA,F,D, | G,,D,F,A, DA,F,D, | G,,D,F,A, =B,A,G,F, | C,,G,,C,E, G,CEG | z8 | %32
!pp! C2 B,A, G,4- | G,2 A,B, C2 C_E | .D2 .A,2 .D,2 .A,,2 | .D,,4 A,,4 | C2 B,A, G,4- | %37
!<(! G,2 A,B, C2 C_E | E8- | E4 ^D2 E2!<)! |!mf! [A,C]8- | [A,C]8 |"_dim." [^G,=B,]4 [=G,_B,]4 | %43
 [G,B,]8 |!p! [F,A,]4 [G,,D,]4- | [G,,D,]4 C,,C,B,E | F,,F,,C,A,- A,2 z2 | z8 | D2 E2 E2 D2 | %49
 D2 E2 E4 |!pp! D,2 E,2 E,2 D,2 | G,,2 C,,2 F,,2 F,,2 |!p! D2 E2 E2 D2 | D2 E2 E4 |!pp! =B,,8- | %55
 B,,6 E,,2 |[K:E] E,,2 B,,4 B,2- | B,2 B,,4 B,2- | B,2 B,,4 B,2- | B,2 B,,4 F,2 | B,8 | %61
[K:tenor] B,6 G2 | =G4"_cresc." F4 | E4 D4 |!mf! =G2 (3AGA F4 | E2 (3FEF D4 |[K:C]!p! D2 E2 C2 A2 | %67
 D2 (3EDE C2 A,2 |[K:bass] G,,8 | G,,4 (3C,,G,,C, (3E,_B,C | G,4 (3C,G,C (3EG_B |!pp! z8 | %72
[M:3/4] z6 |[K:F][M:4/4] B,CDG z4 | B,CDG z4 | B,CDG z4 | B,CDG z4 | B,CDG z4 | B,CDG z4 | %79
 F,,C,- C,6 | F,,C,- C,6 |!mp! D,,A,,D,F, A,CEC | A,F,A,C G,,D,G,B, |!p! D,,A,,D,F, A,CEC | %84
 A,F,A,C G,,D,G,B, | _E,,B,,_E,G, B,_EGE |!<(! B,G,_E,B,, _E,,C,F,A,!<)! | %87
!mf! _E,,B,,_E,G, B,_EGE | B,G,_E,B,,!>(! A,,E,A,,D,!>)! |!p! G,,8 | G,,8 | G,8 | A,4 D,4 | %93
 D2 ^C2 C2 D2 | D2 ^C2 C4 |!pp! D2 ^C2 C2 D2 | C8 | F,,F,,C,F, A, C2 F- | F8 |] %99

